src/img/logo.svg

<svg fill="none" height="42" viewBox="0 0 345 42" width="345" xmlns="http://www.w3.org/2000/svg"><path d="m28.24.979997h-22.8l-4.92 40.020003h10.14l1.92-15.6h11.52l1.08-8.82h-11.52l.84-6.78h12.66zm40.238 0h-10.14l-2.76 22.800003c-.78 6.3-2.76 8.4-7.8 8.4-4.44 0-6.66-2.1-6.66-6.3 0-1.2.06-2.16.18-3.3l2.64-21.600003h-10.08l-2.64 21.600003c-.3 2.28-.48 4.44-.48 5.52 0 8.52 6.3 13.68 16.68 13.68 5.88 0 10.8-1.62 13.68-4.5 2.58-2.52 3.6-5.58 4.56-13.14zm22.2478 8.820003h8.4l1.0802-8.820003h-27.1202l-1.08 8.820003h8.58l-3.84 31.2h10.14zm48.6502-8.820003h-10.14l-2.76 22.800003c-.78 6.3-2.76 8.4-7.8 8.4-4.44 0-6.66-2.1-6.66-6.3 0-1.2.06-2.16.18-3.3l2.64-21.600003h-10.08l-2.64 21.600003c-.3 2.28-.48 4.44-.48 5.52 0 8.52 6.3 13.68 16.68 13.68 5.88 0 10.8-1.62 13.68-4.5 2.58-2.52 3.6-5.58 4.56-13.14zm27.048 24.480003c5.76-2.04 8.52-5.94 8.52-12.06 0-8.46-4.5-12.420003-14.16-12.420003h-13.02l-4.92 40.020003h10.14l1.92-15.9 9.6 15.9h11.76zm-9.54-16.5h1.92c4.26 0 5.76 1.2 5.76 4.68 0 3.84-2.28 5.64-7.14 5.64h-1.8zm50.456-7.980003h-21.9l-4.92 40.020003h22.38l1.08-8.82h-12.24l.84-6.66h11.4l1.08-8.82h-11.4l.84-6.9h11.76zm23.964 17.760003-.96 7.98h9.24c-.84 3.78-4.26 6.24-8.64 6.24-6.18 0-10.56-4.62-10.56-11.16 0-7.32 4.86-13.02 11.1-13.02 4.5 0 7.5 2.04 9.54 6.54l8.76-3.42c-3.3-7.8-9.24-11.7-17.94-11.7-12.66 0-21.84 9.24-21.84 21.96 0 11.52 8.22 19.62 19.8 19.62 8.82 0 15.9-4.5 18.78-11.94 1.26-3.36 1.86-6.72 1.92-11.1zm46.617-18.600003c-13.32 0-22.68 8.820003-22.68 21.360003 0 12.12 8.82 20.28 21.84 20.28 12.9 0 21.72-8.94 21.72-21.96 0-11.7-8.46-19.680003-20.88-19.680003zm-.54 9.600003c6.66 0 11.04 4.44 11.04 11.16 0 6.6-4.8 11.28-11.58 11.28-6.72 0-11.22-4.44-11.22-11.04 0-6.54 4.98-11.4 11.76-11.4zm66.761-8.760003h-11.34l-10.26 20.100003c-.96 1.8-1.62 3.36-2.28 5.46-.3-3.24-.48-4.32-1.2-7.32l-4.62-18.240003h-10.8l10.5 40.020003h8.52z" fill="#150810"/></svg>

<svg width="345" height="42" viewBox="0 0 345 42" fill="none" xmlns="http://www.w3.org/2000/svg">
<path d="M28.24 0.979997H5.44L0.52 41H10.66L12.58 25.4H24.1L25.18 16.58H13.66L14.5 9.8H27.16L28.24 0.979997ZM68.478 0.979997H58.338L55.578 23.78C54.798 30.08 52.818 32.18 47.778 32.18C43.338 32.18 41.118 30.08 41.118 25.88C41.118 24.68 41.178 23.72 41.298 22.58L43.938 0.979997H33.858L31.218 22.58C30.918 24.86 30.738 27.02 30.738 28.1C30.738 36.62 37.038 41.78 47.418 41.78C53.298 41.78 58.218 40.16 61.098 37.28C63.678 34.76 64.698 31.7 65.658 24.14L68.478 0.979997ZM90.7258 9.8H99.1258L100.206 0.979997H73.0858L72.0058 9.8H80.5858L76.7458 41H86.8858L90.7258 9.8ZM139.376 0.979997H129.236L126.476 23.78C125.696 30.08 123.716 32.18 118.676 32.18C114.236 32.18 112.016 30.08 112.016 25.88C112.016 24.68 112.076 23.72 112.196 22.58L114.836 0.979997H104.756L102.116 22.58C101.816 24.86 101.636 27.02 101.636 28.1C101.636 36.62 107.936 41.78 118.316 41.78C124.196 41.78 129.116 40.16 131.996 37.28C134.576 34.76 135.596 31.7 136.556 24.14L139.376 0.979997ZM166.424 25.46C172.184 23.42 174.944 19.52 174.944 13.4C174.944 4.94 170.444 0.979997 160.784 0.979997H147.764L142.844 41H152.984L154.904 25.1L164.504 41H176.264L166.424 25.46ZM156.884 8.96H158.804C163.064 8.96 164.564 10.16 164.564 13.64C164.564 17.48 162.284 19.28 157.424 19.28H155.624L156.884 8.96ZM207.34 0.979997H185.44L180.52 41H202.9L203.98 32.18H191.74L192.58 25.52H203.98L205.06 16.7H193.66L194.5 9.8H206.26L207.34 0.979997ZM231.304 18.74L230.344 26.72H239.584C238.744 30.5 235.324 32.96 230.944 32.96C224.764 32.96 220.384 28.34 220.384 21.8C220.384 14.48 225.244 8.78 231.484 8.78C235.984 8.78 238.984 10.82 241.024 15.32L249.784 11.9C246.484 4.1 240.544 0.2 231.844 0.2C219.184 0.2 210.004 9.44 210.004 22.16C210.004 33.68 218.224 41.78 229.804 41.78C238.624 41.78 245.704 37.28 248.584 29.84C249.844 26.48 250.444 23.12 250.504 18.74H231.304ZM277.921 0.139997C264.601 0.139997 255.241 8.96 255.241 21.5C255.241 33.62 264.061 41.78 277.081 41.78C289.981 41.78 298.801 32.84 298.801 19.82C298.801 8.12 290.341 0.139997 277.921 0.139997ZM277.381 9.74C284.041 9.74 288.421 14.18 288.421 20.9C288.421 27.5 283.621 32.18 276.841 32.18C270.121 32.18 265.621 27.74 265.621 21.14C265.621 14.6 270.601 9.74 277.381 9.74ZM344.142 0.979997H332.802L322.542 21.08C321.582 22.88 320.922 24.44 320.262 26.54C319.962 23.3 319.782 22.22 319.062 19.22L314.442 0.979997H303.642L314.142 41H322.662L344.142 0.979997Z" fill="#150810"/>
</svg>
